X:4317
T:Siciliano
C:Henry Purcell
Z:Transcribed by Frank Nordberg - http://www.musicaviva.com
F:http://abc.musicaviva.com/tunes/purcell-henry/purcell-siciliano.abc
V:1 Program 1 6 %Harpsichord
V:2 Program 1 6 bass %Harpsichord
M:6/8
L:1/8
Q:3/8=72
K:Gm
V:1
A|MB2Gd2A|MB2G A/B/cA|B>ed MB>AG|[B,3-D3-G3-][B,2D2G2]:|
V:2
D,|[G,,3G,3]z2D,|[G,,3G,3]z2D,|[G,,3G,3]z2D,|[G,,3G,3]z2:|
%
V:1
|:g|{^f}g2d =e/f/gd|{=e/f/}e2c d/e/fc|d>gf Md>cB|[D3-F3-B3-][D2F2B2]D|
V:2
|:G,|[D,3D3]z2G,|[C,3C3]z2F,|[B,,3B,3]z2F,|[B,,3B,3]z2B,,|
%
V:1
=E/^F/GDE2G|A/B/cAd2B|c/d/ec MB>AG|[B,3-D3-G3-][B,2D2G2]:|
V:2
G,,3z2C,|A,,3z2G,|C,3z2D,|[G,,3G,,,3]z2:|
W:
W:
W:  From Musica Viva - http://www.musicaviva.com
W:  the Internet center for free sheet music downloads.

